X: 258
T:I Have a Bonnet Trimmed with Blue
R:polka
S:A Set Dance Tape - the Polka figure of the Mazerkas (Myzherks)
M:2/4
L:1/8
Z: Dennis J. Gormley
K:G
GA/B/ ce|dG B2|de/d/ CA|GB A2|GA/B/ ce|dG B2|de/d/ CA|AG G2:|
|:de/f/ gf/e/|dG B2|de/d/ cA|GB A2|de/f/ gf/e/|dG B2|de/d/ cA|AG G2:|

